svg/thought_bubble_outline.svg

<svg xmlns="http://www.w3.org/2000/svg" viewBox="0 0 24 24"><path d="M3.5 19A1.5 1.5 0 0 1 5 20.5 1.5 1.5 0 0 1 3.5 22 1.5 1.5 0 0 1 2 20.5 1.5 1.5 0 0 1 3.5 19m5-3a2.5 2.5 0 0 1 2.5 2.5A2.5 2.5 0 0 1 8.5 21 2.5 2.5 0 0 1 6 18.5 2.5 2.5 0 0 1 8.5 16m6-1c-1.19 0-2.27-.5-3-1.35-.73.85-1.81 1.35-3 1.35-1.96 0-3.59-1.41-3.93-3.26A4.02 4.02 0 0 1 2 8a4 4 0 0 1 4-4l.77.07C7.5 3.41 8.45 3 9.5 3c1.19 0 2.27.5 3 1.35.73-.85 1.81-1.35 3-1.35 1.96 0 3.59 1.41 3.93 3.26A4.02 4.02 0 0 1 22 10a4 4 0 0 1-4 4l-.77-.07c-.73.66-1.68 1.07-2.73 1.07M6 6a2 2 0 0 0-2 2 2 2 0 0 0 2 2c.33 0 .64-.08.92-.22A2 2 0 0 0 6.5 11a2 2 0 0 0 2 2c.6 0 1.14-.27 1.5-.69l1.47-1.68L13 12.34c.38.4.91.66 1.5.66 1 0 1.83-.74 2-1.7.34.43.89.7 1.5.7a2 2 0 0 0 2-2 2 2 0 0 0-2-2c-.33 0-.64.08-.92.22A2 2 0 0 0 17.5 7a2 2 0 0 0-2-2c-.59 0-1.12.26-1.5.66l-1.53 1.71L11 5.69c-.36-.42-.9-.69-1.5-.69-1 0-1.83.74-2 1.7C7.16 6.27 6.61 6 6 6m2.5 11.5a1 1 0 0 0-1 1 1 1 0 0 0 1 1 1 1 0 0 0 1-1 1 1 0 0 0-1-1"/></svg>

<?xml version="1.0" encoding="UTF-8"?><!DOCTYPE svg PUBLIC "-//W3C//DTD SVG 1.1//EN" "http://www.w3.org/Graphics/SVG/1.1/DTD/svg11.dtd"><svg xmlns="http://www.w3.org/2000/svg" xmlns:xlink="http://www.w3.org/1999/xlink" version="1.1" id="mdi-thought-bubble-outline" width="24" height="24" viewBox="0 0 24 24"><path d="M3.5,19A1.5,1.5 0 0,1 5,20.5A1.5,1.5 0 0,1 3.5,22A1.5,1.5 0 0,1 2,20.5A1.5,1.5 0 0,1 3.5,19M8.5,16A2.5,2.5 0 0,1 11,18.5A2.5,2.5 0 0,1 8.5,21A2.5,2.5 0 0,1 6,18.5A2.5,2.5 0 0,1 8.5,16M14.5,15C13.31,15 12.23,14.5 11.5,13.65C10.77,14.5 9.69,15 8.5,15C6.54,15 4.91,13.59 4.57,11.74C3.07,11.16 2,9.7 2,8A4,4 0 0,1 6,4L6.77,4.07C7.5,3.41 8.45,3 9.5,3C10.69,3 11.77,3.5 12.5,4.35C13.23,3.5 14.31,3 15.5,3C17.46,3 19.09,4.41 19.43,6.26C20.93,6.84 22,8.3 22,10A4,4 0 0,1 18,14L17.23,13.93C16.5,14.59 15.55,15 14.5,15M6,6A2,2 0 0,0 4,8A2,2 0 0,0 6,10C6.33,10 6.64,9.92 6.92,9.78C6.66,10.12 6.5,10.54 6.5,11A2,2 0 0,0 8.5,13C9.1,13 9.64,12.73 10,12.31V12.31L11.47,10.63L13,12.34V12.34C13.38,12.74 13.91,13 14.5,13C15.5,13 16.33,12.26 16.5,11.3C16.84,11.73 17.39,12 18,12A2,2 0 0,0 20,10A2,2 0 0,0 18,8C17.67,8 17.36,8.08 17.08,8.22C17.34,7.88 17.5,7.46 17.5,7A2,2 0 0,0 15.5,5C14.91,5 14.38,5.26 14,5.66L12.47,7.37L11,5.69V5.69C10.64,5.27 10.1,5 9.5,5C8.5,5 7.67,5.74 7.5,6.7C7.16,6.27 6.61,6 6,6M8.5,17.5A1,1 0 0,0 7.5,18.5A1,1 0 0,0 8.5,19.5A1,1 0 0,0 9.5,18.5A1,1 0 0,0 8.5,17.5Z" /></svg>
